X:1
T:Title
%%score { ( 1 2 ) | ( 3 4 ) }
L:1/8
Q:1/4=100
M:6/8
K:A
V:1 treble nm="Grand Piano"
V:2 treble 
V:3 bass 
V:4 bass 
V:1
 [EA]2 [EA] AB[Ac] | [Ad]2 [Ad] [Ad]3 | [GB]3 [ce]2 [Bd] | [Ac]6 | [Ac]2 [Ac] [Ac][Bd][ce] | %5
w: T.~Martin~Towne * * * *|||||
 [df]2 [df] [df]3 | [Be]3 [B^d]2 [Bd] | [Be]6 | [Ac]2 [Ac] [Af]2 [ce] | [ce]2 [B^d] [Bd]3 | %10
w: |||||
 [GB]2 [GB] [ce]2 [Bd] | [Bd]2 [Ac] [Ac]3 | [Gc]2 [Gd] [Gc]2 [GB] | [FA]2 [Ad] [df]3 | %14
w: ||||
 [ce]2 [ce] [B^d]2 [Bd] |[M:7/4] [Bd]2 [Bd] [Ac]3 z2 z2 z4 |[M:3/4] [^Ac]6 | [Bd]4 z2 | [GB]6 | %19
w: |||||
 [Ac]6 |] %20
w: |
V:2
 z3 .E3 | x6 | x6 | x6 | x6 | x6 | x6 | x6 | x6 | x6 | x6 | x6 | x6 | x6 | x6 |[M:7/4] x14 | %16
[M:3/4] x6 | x6 | x6 | x6 |] %20
V:3
 [A,,C,]2 [A,,C,] C,D,[A,,E,] | [D,F,]2 [D,F,] [D,F,]3 | E,3 [E,G,]2 E, | [A,,E,]6 | %4
 [A,,E,]2 [A,,E,] [A,,E,]2 [A,,A,] | [D,A,]2 [D,A,] [D,A,]3 | [B,,G,]3 [B,,F,]2 [B,,A,] | [E,G,]6 | %8
 [A,,E,]2 [A,,E,] [A,,A,]2 [^A,,=G,] | [B,,F,]2 [B,,F,] [B,,F,]3 | E,2 E, [E,G,]2 [E,G,] | %11
 [A,,E,]2 [A,,E,] [A,,E,]3 | [C,^E,]2 [C,E,] [C,E,]2 [C,E,] | [D,F,]2 [D,F,] [D,A,]3 | %14
 [E,A,]2 [E,A,] [F,A,]2 [B,,A,] |[M:7/4] [E,G,]2 E, [A,,E,]3 z2 z2 z4 |[M:3/4] F,6 | [B,,F,]4 z2 | %18
 E,6 | [A,,E,]6 |] %20
V:4
 z3 .A,,3 | x6 | x6 | x6 | x6 | x6 | x6 | x6 | x6 | x6 | x6 | x6 | x6 | x6 | x6 |[M:7/4] x14 | %16
[M:3/4] x6 | x6 | x6 | x6 |] %20

